X: 16575
T: Hamster's Wheel, The
R: slip jig
M: 9/8
K: Dmajor
FAA dcB AAA|FAA def ggg|FAA dcB AAA|gfe gfe d3:|
Acd edc def|ggg afd dcA|Acd edc def|gfe gfe d3:|
ggg efg fef|AAA fef GGG|ggg efg fef|gfe gfe d3:|
afd d2c d2e|afd dcd AAA|afd d2c d2e|gfe gfe d3:|

